assets/logo.svg

<?xml version="1.0" encoding="UTF-8"?>
<svg width="1372px" height="585px" viewBox="0 0 1372 585" version="1.1" xmlns="http://www.w3.org/2000/svg" xmlns:xlink="http://www.w3.org/1999/xlink">
    <defs>
        <path d="M368.209579,438.8085 L368.147736,219.40425 C368.147736,179.03925 351.638763,142.47675 324.984694,116.0055 C298.330625,89.53425 261.522624,73.125 220.889231,73.125 C180.252892,73.125 143.444892,89.53425 116.790822,116.0055 C90.136753,142.47675 73.6277803,179.03925 73.6277803,219.40425 C73.6277803,259.76925 90.136753,296.33175 116.790822,322.803 C143.444892,349.27425 180.252892,365.65425 220.889231,365.65425 L220.951073,365.65425 C261.61686,365.65425 294.581798,398.41425 294.581798,438.8085 L220.889231,438.8085 C98.9772697,438.8085 4.18491996e-13,340.49925 4.18491996e-13,219.40425 C4.18491996e-13,98.30925 98.9772697,0 220.889231,0 C342.801192,0 441.775516,98.30925 441.775516,219.40425 L441.775516,438.8085 L368.209579,438.8085 Z" id="path-1"></path>
        <path d="M661.482448,329.73525 C674.301433,329.73525 687.246209,331.929 700.319701,336.3165 C713.390269,340.704 724.819701,346.75875 734.602149,354.51 L714.867582,381.85875 C705.421552,374.60475 696.145194,369.252 687.035582,365.77125 C677.928896,362.31975 668.567701,360.594 658.952,360.594 C649.169552,360.594 641.326627,362.4075 635.423224,366.0345 C629.519821,369.6615 626.568119,374.517 626.568119,380.57175 C626.568119,385.983 628.507642,390.195 632.386687,393.237 C636.265731,396.279 642.76006,398.4435 651.869672,399.81825 L685.265731,405.37575 C702.806269,408.24225 716.005552,413.85825 724.860657,422.1945 C733.715761,430.53075 738.144776,441.558 738.144776,455.21775 C738.144776,472.41675 731.354985,486.16425 717.775403,496.431 C704.198746,506.727 686.108239,511.875 663.506806,511.875 C649.339224,511.875 635.379343,509.184 621.633015,503.77275 C607.886687,498.39075 595.699582,490.8735 585.074627,481.2795 L606.072955,454.9545 C616.361493,463.905 626.272657,470.42775 635.803522,474.552 C645.331463,478.7055 655.409373,480.753 666.037254,480.753 C677.001552,480.753 685.771821,478.73475 692.34806,474.69825 C698.927224,470.6325 702.215343,465.2505 702.215343,458.49375 C702.215343,452.439 699.983284,447.7005 695.513313,444.33675 C691.043343,440.94375 683.577791,438.42825 673.119582,436.73175 L637.953672,430.677 C622.770985,428.13225 611.259642,422.838 603.416716,414.73575 C595.573791,406.6335 591.653791,396.19125 591.653791,383.3505 C591.653791,366.82425 597.934567,353.77875 610.50197,344.1555 C623.066448,334.53225 640.05994,329.73525 661.482448,329.73525 Z M898.803343,377.559 L898.803343,454.194 C898.803343,462.618 901.292836,469.37475 906.268896,474.435 C911.24203,479.49525 917.865075,482.01075 926.129254,482.01075 C932.032657,482.01075 937.304179,480.89925 941.940896,478.61775 C946.580537,476.33625 950.418627,473.0895 953.452239,468.8775 L953.452239,377.559 L988.114985,377.559 L988.114985,509.3595 L953.452239,509.3595 L953.452239,498.7125 C948.394269,502.9245 942.742448,506.17125 936.502627,508.45275 C930.259881,510.73425 923.51397,511.875 916.26197,511.875 C901.082209,511.875 888.599642,506.93175 878.817194,497.0745 C869.031821,487.21725 864.140597,474.6105 864.140597,459.25425 L864.140597,377.559 L898.803343,377.559 Z M1301.08603,375.01425 C1310.86848,375.01425 1320.06293,376.7985 1328.66352,380.33775 C1337.26704,383.877 1344.72967,388.7325 1351.05433,394.875 C1357.38191,401.0175 1362.35504,408.2715 1365.98251,416.637 C1369.60997,424.97325 1371.4237,433.953 1371.4237,443.57625 C1371.4237,453.17025 1369.60997,462.17925 1365.98251,470.5155 C1362.35504,478.85175 1357.38191,486.0765 1351.05433,492.13125 C1344.72967,498.21525 1337.26704,503.01225 1328.66352,506.5515 C1320.06293,510.09075 1310.86848,511.875 1301.08603,511.875 C1291.30358,511.875 1282.11206,510.09075 1273.50854,506.5515 C1264.90501,503.01225 1257.44239,498.21525 1251.11773,492.13125 C1244.79307,486.0765 1239.81701,478.85175 1236.18955,470.5155 C1232.56209,462.17925 1230.75128,453.17025 1230.75128,443.57625 C1230.75128,433.953 1232.56209,424.97325 1236.18955,416.637 C1239.81701,408.2715 1244.79307,401.0175 1251.11773,394.875 C1257.44239,388.7325 1264.90501,383.877 1273.50854,380.33775 C1282.11206,376.7985 1291.30358,375.01425 1301.08603,375.01425 Z M810.503881,336.05325 L810.503881,377.559 L847.948657,377.559 L847.948657,406.6335 L810.503881,406.6335 L810.503881,465.075 C810.503881,471.30525 811.852478,475.69275 814.552597,478.2375 C817.249791,480.753 821.974269,482.01075 828.720179,482.01075 C831.926388,482.01075 834.962925,481.806 837.829791,481.3965 C840.696657,480.95775 843.81803,480.168 847.190985,478.998 L847.190985,507.312 C843.478687,508.51125 839.008716,509.4765 833.781075,510.237 C828.553433,510.9975 824.083463,511.37775 820.371164,511.37775 C805.697493,511.37775 794.607403,508.04325 787.100896,501.37425 C779.594388,494.70525 775.841134,484.965 775.841134,472.1535 L775.841134,406.6335 L748.769731,406.6335 L748.769731,377.559 L775.841134,377.559 L775.841134,343.89225 L810.503881,336.05325 Z M1147.7643,324.675 L1147.7643,509.3595 L1113.60764,509.3595 L1113.60764,498.4785 C1108.38,502.6905 1102.55851,505.8495 1096.14901,507.9555 C1089.73952,510.0615 1083.07845,511.1145 1076.16287,511.1145 C1066.88651,511.1145 1058.15719,509.3595 1049.97493,505.791 C1041.79558,502.25175 1034.66937,497.45475 1028.5963,491.37075 C1022.52322,485.316 1017.76072,478.14975 1014.30293,469.872 C1010.84513,461.6235 1009.11624,452.76075 1009.11624,443.313 C1009.11624,433.86525 1010.88609,425.03175 1014.42872,416.754 C1017.97134,408.5055 1022.77773,401.33925 1028.85081,395.25525 C1034.92096,389.17125 1042.132,384.4035 1050.48101,380.952 C1058.83003,377.5005 1067.72901,375.77475 1077.17504,375.77475 C1083.58454,375.77475 1089.86824,376.65225 1096.02322,378.4365 C1102.18113,380.1915 1107.87391,382.7655 1113.10155,386.1585 L1113.10155,332.25075 L1147.7643,324.675 Z M1209.75003,377.559 L1209.75003,509.3595 L1175.08728,509.3595 L1175.08728,377.559 L1209.75003,377.559 Z M1301.08603,405.1125 C1290.96716,405.1125 1282.36364,408.82725 1275.27839,416.25675 C1268.19606,423.657 1264.65343,432.783 1264.65343,443.57625 C1264.65343,454.194 1268.19606,463.23225 1275.27839,470.6325 C1282.36364,478.062 1290.96716,481.77675 1301.08603,481.77675 C1311.20782,481.77675 1319.80842,478.062 1326.89367,470.6325 C1333.976,463.23225 1337.51863,454.194 1337.51863,443.57625 C1337.51863,432.783 1333.976,423.657 1326.89367,416.25675 C1319.80842,408.82725 1311.20782,405.1125 1301.08603,405.1125 Z M1081.72985,405.1125 C1070.76555,405.1125 1061.61499,408.798 1054.27815,416.1105 C1046.94131,423.45225 1043.26997,432.51975 1043.26997,443.313 C1043.26997,453.93075 1046.98227,462.969 1054.40394,470.3985 C1061.82561,477.79875 1070.9323,481.5135 1081.72985,481.5135 C1088.13934,481.5135 1093.99887,480.43125 1099.31134,478.2375 C1104.62675,476.04375 1109.22251,472.914 1113.10155,468.8775 L1113.10155,417.5145 C1109.38925,413.62425 1104.79349,410.6115 1099.31134,408.41775 C1093.83212,406.224 1087.96967,405.1125 1081.72985,405.1125 Z M1192.29433,322.3935 C1197.69164,322.3935 1202.32836,324.324 1206.2074,328.21425 C1210.08645,332.1045 1212.0289,336.726 1212.0289,342.13725 C1212.0289,347.51925 1210.08645,352.17 1206.2074,356.031 C1202.32836,359.92125 1197.69164,361.85175 1192.29433,361.85175 C1186.89409,361.85175 1182.25737,359.92125 1178.37833,356.031 C1174.49928,352.17 1172.55684,347.51925 1172.55684,342.13725 C1172.55684,336.726 1174.49928,332.1045 1178.37833,328.21425 C1182.25737,324.324 1186.89409,322.3935 1192.29433,322.3935 Z M1090.03791,73.125 C1099.81158,73.125 1108.84221,74.38275 1117.13272,76.9275 C1125.4203,79.443 1132.53188,82.98225 1138.46746,87.516 C1144.40012,92.04975 1149.02513,97.461 1152.33958,103.74975 C1155.65696,110.0385 1157.31272,116.91225 1157.31272,124.4295 C1157.31272,133.497 1154.87003,141.7455 1149.98466,149.175 C1145.09928,156.57525 1138.46746,162.4545 1130.08919,166.842 C1140.03546,170.32275 1148.02173,175.734 1154.04215,183.0465 C1160.06257,190.38825 1163.07278,198.75375 1163.07278,208.17225 C1163.07278,215.865 1161.24149,223.002 1157.576,229.64175 C1153.91051,236.2815 1148.80573,241.956 1142.26167,246.66525 C1135.71761,251.3745 1127.95075,255.08925 1118.964,257.78025 C1109.97725,260.5005 1100.1597,261.846 1089.51427,261.846 C1075.37887,261.846 1061.9397,259.30125 1049.1997,254.241 C1036.46263,249.18075 1025.81719,242.21925 1017.2634,233.298 L1041.348,211.068 C1048.67606,218.3805 1055.91928,223.5285 1063.07475,226.512 C1070.23021,229.46625 1078.9566,230.958 1089.25391,230.958 C1100.42299,230.958 1109.49749,228.58875 1116.47743,223.8795 C1123.45737,219.17025 1126.94734,213.057 1126.94734,205.569 C1126.94734,198.75375 1123.76454,193.3425 1117.39307,189.33525 C1111.02454,185.328 1102.60239,183.30975 1092.13248,183.30975 L1075.37887,183.30975 L1075.37887,154.791 L1088.46699,154.791 C1097.89254,154.791 1105.74424,152.24625 1112.02794,147.186 C1118.30872,142.12575 1121.45057,135.7785 1121.45057,128.08575 C1121.45057,121.29975 1118.3526,115.62525 1112.15666,111.0915 C1105.96364,106.5285 1098.1529,104.27625 1088.73027,104.27625 C1079.82836,104.27625 1071.97666,105.885 1065.16931,109.1025 C1058.36197,112.34925 1051.03391,117.8775 1043.17928,125.74575 L1018.83433,103.4865 C1027.73624,94.068 1038.46943,86.6385 1051.03391,81.22725 C1063.59839,75.816 1076.59875,73.125 1090.03791,73.125 Z M656.801851,75.9915 L656.801851,259.2135 L620.936776,259.2135 L620.936776,112.3785 L585.074627,127.03275 L585.074627,95.91075 L634.024896,75.9915 L656.801851,75.9915 Z M789.259821,75.9915 L863.602328,259.2135 L822.503761,259.2135 L803.918866,211.068 L728.265791,211.068 L709.417612,259.2135 L669.88997,259.2135 L745.279761,75.9915 L789.259821,75.9915 Z M935.58991,73.6515 C945.363582,73.6515 954.394209,74.997 962.684716,77.71725 C970.975224,80.40825 978.042925,84.21075 983.887821,89.0955 C989.735642,93.98025 994.272896,99.918 997.499582,106.8795 C1000.72919,113.87025 1002.344,121.446 1002.344,129.66525 C1002.344,140.13675 999.725791,149.8185 994.489373,158.7105 C989.255881,167.6025 980.178448,177.81075 967.265851,189.33525 L922.501791,229.11525 L1004.69893,229.11525 L1004.69893,259.2135 L872.504239,259.2135 L872.504239,234.08775 L944.752179,169.44525 C952.954925,161.928 958.802746,155.34675 962.292716,149.67225 C965.782687,144.027 967.526209,138.1185 967.526209,132.00525 C967.526209,123.99075 964.387284,117.351 958.103582,112.11525 C951.819881,106.8795 943.968179,104.27625 934.542627,104.27625 C925.819164,104.27625 917.660299,106.03125 910.068955,109.512 C902.477612,112.99275 894.230985,118.755 885.329075,126.7695 L865.173254,102.69675 C875.818687,93.10275 887.075522,85.84875 898.940836,80.964 C910.809075,76.07925 923.025433,73.6515 935.58991,73.6515 Z M766.482866,113.16825 L740.046269,180.7065 L792.398746,180.7065 L766.482866,113.16825 Z" id="path-3"></path>
    </defs>
    <g id="Lockup-landscape-primary" stroke="none" stroke-width="1" fill="none" fill-rule="evenodd">
        <g id="Logo-lockup">
            <g id="Logogram">
                <polygon id="Fill-9" fill="#38D1C4" points="-5.85888795e-13 584.992395 441.731343 584.992395 441.731343 511.867395 -5.85888795e-13 511.867395"></polygon>
                <mask id="mask-2" fill="white">
                    <use xlink:href="#path-1"></use>
                </mask>
                <use id="Mask" fill="#FFFFFF" xlink:href="#path-1"></use>
            </g>
            <mask id="mask-4" fill="white">
                <use xlink:href="#path-3"></use>
            </mask>
            <use id="Combined-Shape" fill="#FFFFFF" xlink:href="#path-3"></use>
        </g>
    </g>
</svg>

<svg xmlns="http://www.w3.org/2000/svg" xmlns:xlink="http://www.w3.org/1999/xlink" width="1372" height="585" xmlns:v="https://vecta.io/nano"><defs><path d="M368.21 438.809l-.062-219.404c0-40.365-16.509-76.927-43.163-103.399s-63.462-42.88-104.095-42.88-77.444 16.409-104.098 42.881-43.163 63.034-43.163 103.399 16.509 76.928 43.163 103.399 63.462 42.851 104.098 42.851h.062c40.666 0 73.631 32.76 73.631 73.154h-73.693C98.977 438.809 0 340.499 0 219.404S98.977 0 220.889 0s220.886 98.309 220.886 219.404v219.404H368.21z" id="A"/><path d="M661.482 329.735c12.819 0 25.764 2.194 38.837 6.581s24.5 10.442 34.282 18.193l-19.735 27.349c-9.446-7.254-18.722-12.607-27.832-16.087-9.107-3.452-18.468-5.177-28.084-5.177-9.782 0-17.625 1.814-23.529 5.44s-8.855 8.483-8.855 14.537c0 5.411 1.94 9.623 5.819 12.665s10.373 5.206 19.483 6.581l33.396 5.558c17.541 2.867 30.74 8.483 39.595 16.819s13.284 19.363 13.284 33.023c0 17.199-6.79 30.946-20.369 41.213-13.577 10.296-31.667 15.444-54.269 15.444-14.168 0-28.127-2.691-41.874-8.102-13.746-5.382-25.933-12.899-36.558-22.493l20.998-26.325c10.289 8.95 20.2 15.473 29.731 19.598 9.528 4.153 19.606 6.201 30.234 6.201 10.964 0 19.735-2.018 26.311-6.055 6.579-4.066 9.867-9.448 9.867-16.204 0-6.055-2.232-10.793-6.702-14.157-4.47-3.393-11.936-5.909-22.394-7.605l-35.166-6.055c-15.183-2.545-26.694-7.839-34.537-15.941s-11.763-18.544-11.763-31.385c0-16.526 6.281-29.572 18.848-39.195s29.558-14.42 50.98-14.42zm237.321 47.824v76.635c0 8.424 2.489 15.181 7.466 20.241s11.596 7.576 19.86 7.576c5.903 0 11.175-1.111 15.812-3.393a30.65 30.65 0 0 0 11.511-9.74v-91.318h34.663V509.36h-34.663v-10.647c-5.058 4.212-10.71 7.459-16.95 9.74s-12.989 3.422-20.241 3.422c-15.18 0-27.662-4.943-37.445-14.8s-14.677-22.464-14.677-37.82v-81.695h34.663zm402.283-2.545c9.782 0 18.977 1.784 27.577 5.324s16.066 8.395 22.391 14.537 11.301 13.397 14.928 21.762c3.627 8.336 5.441 17.316 5.441 26.939 0 9.594-1.814 18.603-5.441 26.939s-8.601 15.561-14.928 21.616c-6.325 6.084-13.787 10.881-22.391 14.42s-17.795 5.324-27.577 5.324-18.974-1.784-27.577-5.324-16.066-8.336-22.391-14.42c-6.325-6.055-11.301-13.28-14.928-21.616s-5.438-17.345-5.438-26.939c0-9.623 1.811-18.603 5.438-26.939 3.627-8.365 8.604-15.62 14.928-21.762s13.787-10.998 22.391-14.537 17.795-5.324 27.577-5.324zm-490.582-38.961v41.506h37.445v29.075h-37.445v58.441c0 6.23 1.349 10.618 4.049 13.163 2.697 2.515 7.422 3.773 14.168 3.773 3.206 0 6.243-.205 9.11-.614 2.867-.439 5.988-1.228 9.361-2.399v28.314c-3.712 1.199-8.182 2.164-13.41 2.925s-9.698 1.141-13.41 1.141c-14.674 0-25.764-3.334-33.27-10.003s-11.26-16.409-11.26-29.221v-65.52H748.77v-29.074h27.071v-33.667l34.663-7.839zm337.26-11.378V509.36h-34.157v-10.881c-5.228 4.212-11.049 7.371-17.459 9.477s-13.071 3.159-19.986 3.159c-9.276 0-18.006-1.755-26.188-5.324-8.179-3.539-15.306-8.336-21.379-14.42-6.073-6.055-10.836-13.221-14.293-21.499-3.458-8.249-5.187-17.111-5.187-26.559s1.77-18.281 5.312-26.559c3.543-8.249 8.349-15.415 14.422-21.499s13.281-10.852 21.63-14.303 17.248-5.177 26.694-5.177a67.35 67.35 0 0 1 18.848 2.662c6.158 1.755 11.851 4.329 17.078 7.722v-53.908l34.663-7.576zm61.986 52.884V509.36h-34.663v-131.8h34.663zm91.336 27.553c-10.119 0-18.722 3.715-25.808 11.144-7.082 7.4-10.625 16.526-10.625 27.32 0 10.618 3.543 19.656 10.625 27.056 7.085 7.43 15.689 11.144 25.808 11.144s18.722-3.715 25.808-11.144c7.082-7.4 10.625-16.438 10.625-27.056 0-10.793-3.543-19.919-10.625-27.32-7.085-7.43-15.686-11.144-25.808-11.144zm-219.356 0c-10.964 0-20.115 3.685-27.452 10.998-7.337 7.342-11.008 16.409-11.008 27.202 0 10.618 3.712 19.656 11.134 27.086 7.422 7.4 16.528 11.115 27.326 11.115 6.409 0 12.269-1.082 17.581-3.276s9.911-5.324 13.79-9.36v-51.363c-3.712-3.89-8.308-6.903-13.79-9.097s-11.342-3.305-17.581-3.305zm110.564-82.719c5.397 0 10.034 1.93 13.913 5.821s5.822 8.512 5.822 13.923c0 5.382-1.942 10.033-5.822 13.894-3.879 3.89-8.516 5.821-13.913 5.821s-10.037-1.93-13.916-5.821c-3.879-3.861-5.821-8.512-5.821-13.894 0-5.411 1.942-10.033 5.821-13.923s8.516-5.821 13.916-5.821zM1090.038 73.125c9.774 0 18.804 1.258 27.095 3.802 8.288 2.516 15.399 6.055 21.335 10.589s10.558 9.945 13.872 16.234 4.973 13.162 4.973 20.68c0 9.068-2.443 17.316-7.328 24.746-4.885 7.4-11.517 13.279-19.895 17.667 9.946 3.481 17.933 8.892 23.953 16.204 6.02 7.342 9.031 15.707 9.031 25.126 0 7.693-1.831 14.83-5.497 21.47s-8.77 12.314-15.314 17.023-14.311 8.424-23.298 11.115c-8.987 2.72-18.804 4.066-29.45 4.066-14.135 0-27.575-2.545-40.315-7.605s-23.383-12.022-31.936-20.943l24.085-22.23c7.328 7.313 14.571 12.46 21.727 15.444 7.155 2.954 15.882 4.446 26.179 4.446 11.169 0 20.244-2.369 27.224-7.078s10.47-10.823 10.47-18.311c0-6.815-3.183-12.226-9.554-16.234s-14.791-6.025-25.261-6.025h-16.754v-28.519h13.088c9.426 0 17.277-2.545 23.561-7.605s9.423-11.407 9.423-19.1c0-6.786-3.098-12.46-9.294-16.994-6.193-4.563-14.004-6.815-23.426-6.815-8.902 0-16.754 1.609-23.561 4.826-6.807 3.247-14.135 8.775-21.99 16.643l-24.345-22.259c8.902-9.419 19.635-16.848 32.2-22.259s25.565-8.102 39.004-8.102zm-433.236 2.867v183.222h-35.865V112.379l-35.862 14.654V95.911l48.95-19.919h22.777zm132.458 0l74.343 183.222h-41.099l-18.585-48.145h-75.653l-18.848 48.146H669.89l75.39-183.222h43.98zm146.33-2.34c9.774 0 18.804 1.346 27.095 4.066 8.291 2.691 15.358 6.493 21.203 11.378s10.385 10.823 13.612 17.784c3.23 6.991 4.844 14.567 4.844 22.786 0 10.472-2.618 20.153-7.855 29.045s-14.311 19.1-27.224 30.625l-44.764 39.78h82.197v30.098H872.504v-25.126l72.248-64.643c8.203-7.517 14.051-14.099 17.541-19.773 3.49-5.645 5.233-11.554 5.233-17.667 0-8.014-3.139-14.654-9.423-19.89s-14.135-7.839-23.561-7.839c-8.723 0-16.882 1.755-24.474 5.236s-15.838 9.243-24.74 17.257l-20.156-24.073c10.645-9.594 21.902-16.848 33.768-21.733s24.085-7.312 36.649-7.312zm-169.107 39.517l-26.437 67.538h52.352l-25.916-67.538z" id="B"/></defs><g fill-rule="evenodd"><path fill="#38d1c4" d="M0 584.992h441.731v-73.125H0z"/><g fill="#fff"><use xlink:href="#A"/><use xlink:href="#B"/></g></g></svg>
